dist/icons/svgs/exclamation-solid.svg

<svg xmlns="http://www.w3.org/2000/svg" width="24" height="24" fill="currentcolor" class="icon-exclamation-solid" viewBox="0 0 24 24">
  <path d="M13.75 4.5V14.5C13.75 15.2031 13.1641 15.75 12.5 15.75C11.7969 15.75 11.25 15.2031 11.25 14.5V4.5C11.25 3.83594 11.7969 3.25 12.5 3.25C13.1641 3.25 13.75 3.83594 13.75 4.5ZM12.5 20.75C11.9141 20.75 11.4062 20.4766 11.1328 19.9688C10.8594 19.5 10.8594 18.9141 11.1328 18.4062C11.4062 17.9375 11.9141 17.625 12.5 17.625C13.0469 17.625 13.5547 17.9375 13.8281 18.4062C14.1016 18.9141 14.1016 19.5 13.8281 19.9688C13.5547 20.4766 13.0469 20.75 12.5 20.75Z"/>
</svg>

<svg xmlns="http://www.w3.org/2000/svg" width="24" height="24" fill="currentColor" class="icon-exclamation-solid" viewBox="0 0 24 24">
  <path d="M13.75 4.5v10c0 .703-.586 1.25-1.25 1.25-.703 0-1.25-.547-1.25-1.25v-10c0-.664.547-1.25 1.25-1.25.664 0 1.25.586 1.25 1.25M12.5 20.75c-.586 0-1.094-.273-1.367-.781-.274-.469-.274-1.055 0-1.563a1.58 1.58 0 0 1 1.367-.781 1.56 1.56 0 0 1 1.328.781c.274.508.274 1.094 0 1.563a1.48 1.48 0 0 1-1.328.781"/>
</svg>
